X: 267
T: The merry maiden
C: anon.
O: Ireland
B: Francis O'Neill: "The Dance Music of Ireland" (1907) no. 267
R: Double jig
Z: Transcribed by Frank Nordberg - http://www.musicaviva.com
F: http://www.musicaviva.com/abc/tunes/ireland/oneill-1001/oneill-1001-026
7.abc
M: 6/8
L: 1/8
K: D
(d/B/)|ADD BAF|ABd edB|ADD BAF|AFE E2B|ADD BAF|ABd edB|AdB AFE|FDD D2:|
||B|AFA d2e|fdf ecA|BAB d2e|faf gfe|AFA d2e|fdf ecA|BdB AFE|FDD D2:|
W:
W:
W: From Musica Viva - http://www.musicaviva.com
W: the Internet center for free sheet music downloads.


